!!!!SEGMENT: pl-gd--ee-1638--003-018_marenzio-luca--madrigali-a-quatro-voci-menando-un-giorno.krn
!!!cenid: 15xx:992
!!!COM: Marenzio, Luca
!!!COM-rismID: pe30003955
!!!CDT: ~1553-1599/08/22
!!!CNT: Italian
!!!GTL: Madrigali a quatro voci
!!!OTL: Menando un giorno
!!!OMV: 018
!!!PDT: 1587
!!!AGN:
!!!YEC: Copyright 2022 Narodowy Instytut Fryderyka Chopina (https://polishscores.org)
!!!YEM: License CC-BY-4.0 (https://creativecommons.org/licenses/by/4.0)
!!!SMS-siglum: PL-GD
!!!SMS-shelfmark: Ee 1638
!!!SMS-variant:
!!!SMS-altvar:
!!!SMS-shelfwork: 003-018 G
!!!NIFC-rismSourceID: 1001202747
!!!NIFC-rismChildID: 990039322
!!!NIFC-islandoraID: pl-gd:57883
!!!URL-pdf-islandora: https://repozytorium.nifc.pl/islandora/object/pl-gd%3A57883/datastream/PDF/view
!!!URL-scan: https://polish.musicsources.pl/pl/lokalizacje/galeria/klocki-introligatorskie/655 @EN{Scan on Polish Music Sources Website} @PL{Skany w portalu Dziedzictwo Muzyki Polskiej w otwartym dostępie}
!!!IIIF: https://repozytorium.nifc.pl/islandora/object/pl-gd%3A57883/datastream/IIIF/view
!!!ONB-nifc: UWAGA: zbiór na stronach: Canto: s. 637-653, Alto: s. do 486-501, Tenore: s. do 334-349, Bassus: s. do 182-197. Uwaga: utwory podzielone wg tytułów w spisach treści dostępnych na końcu każdej księgi głosowej.
!!!AIN: 1 alto 1 bass 1 soprn 1 tenor
!!!key: C:ion
**kern	**text	**mod-text	**kern	**text	**mod-text	**kern	**text	**mod-text	**kern	**text	**mod-text
*part4	*	*	*part3	*	*	*part2	*	*	*part1	*	*
*staff4	*	*	*staff3	*	*	*staff2	*	*	*staff1	*	*
*I"BASSO	*	*	*I"TENORE	*	*	*I"ALTO	*	*	*I"CANTO	*	*
*mI"Basso	*	*	*mI"Tenore	*	*	*mI"Alto	*	*	*mI"Soprano	*	*
*I'B	*	*	*I'T	*	*	*I'A	*	*	*I'S	*	*
*Ibass	*	*	*Itenor	*	*	*Ialto	*	*	*Isoprn	*	*
*ICvox	*	*	*ICvox	*	*	*ICvox	*	*	*ICvox	*	*
*clefF4	*	*	*clefC4	*	*	*clefC3	*	*	*clefC1	*	*
*mclefF4	*	*	*mclefGv2	*	*	*mclefG2	*	*	*mclefG2	*	*
*k[]	*	*	*k[]	*	*	*k[]	*	*	*k[]	*	*
*C:ion	*	*	*C:ion	*	*	*C:ion	*	*	*C:ion	*	*
*M2/1	*	*	*M2/1	*	*	*M2/1	*	*	*M2/1	*	*
*met(C)	*	*	*met(C)	*	*	*met(C)	*	*	*met(C)	*	*
=1-	=1-	=1-	=1-	=1-	=1-	=1-	=1-	=1-	=1-	=1-	=1-
*xywh-pl-gd--ee1638-8o--0191:1127,583,3393,780	*	*	*xywh-pl-gd--ee1638-8o--0343:1042,515,3565,875	*	*	*xywh-pl-gd--ee1638-8o--0495:1047,456,3456,954	*	*	*xywh-pl-gd--ee1638-8o--0647:1226,493,3372,863	*	*
!LO:TX:b:t=MEnando.:mod=	!	!	!LO:TX:b:t=MEnando:mod=	!	!	!	!	!	!	!	!
00r	.	.	00r	.	.	2c/	ME-	Me-	2r	.	.
.	.	.	.	.	.	4c/	-na(n)do	-nando	2g/	ME-	Me-
.	.	.	.	.	.	4d\	un	un	.	.	.
.	.	.	.	.	.	4e\	gior-	gior-	4g/	-nando	-nando
.	.	.	.	.	.	4f\	-no	-no	4a\	un	un
.	.	.	.	.	.	2.g\	gl'-	gl'a-	4b\	gior-	gior-
.	.	.	.	.	.	.	.	.	4cc\	-no	-no
=2-	=2-	=2-	=2-	=2-	=2-	=2-	=2-	=2-	=2-	=2-	=2-
.	.	.	.	.	.	.	.	.	2.dd\	gl'-	gl'a-
.	.	.	.	.	.	4f\	-agni	-gni	.	.	.
.	.	.	.	.	.	4d\	preſ-	preſ-	.	.	.
.	.	.	.	.	.	4e\	-ſo	-ſo	4cc\	-agni	-gni
.	.	.	.	.	.	2.f\	un	un	4a\	preſ-	preſ-
.	.	.	.	.	.	.	.	.	4b\	-so	-so
.	.	.	.	.	.	.	.	.	2.cc\	un	un
.	.	.	.	.	.	4e\	fiu-	fiu-	.	.	.
=3-	=3-	=3-	=3-	=3-	=3-	=3-	=3-	=3-	=3-	=3-	=3-
1r	.	.	1r	.	.	1d	.	.	.	.	.
.	.	.	.	.	.	.	.	.	8b\	fiu-	fiu-
.	.	.	.	.	.	.	.	.	8a\	.	.
.	.	.	.	.	.	.	.	.	2b\	.	.
4r	.	.	4r	.	.	2c/	-me	-me	2cc\	-me	-me
4C/	Vidi	Vidi	4c\	Vidi	Vidi	.	.	.	.	.	.
4E\	un	un	4c\	un	un	2r	.	.	2r	.	.
4F\	bel	bel	4c\	bel	bel	.	.	.	.	.	.
=4-	=4-	=4-	=4-	=4-	=4-	=4-	=4-	=4-	=4-	=4-	=4-
4G\	lu-	lu-	4B\	lume	lu-	0r	.	.	0r	.	.
4E\	-me in	-me in	4G/	in	-me in	.	.	.	.	.	.
4.A\	mez-	mez-	4.c\	mez-	mez-	.	.	.	.	.	.
8A\	-zo	-zo	8c\	-zo	-zo	.	.	.	.	.	.
4A\	di	di	4c\	di	di	.	.	.	.	.	.
4G\	quell'	quell'	4B\	quell'	quell'	.	.	.	.	.	.
2F#X\	on-	on-	2A/	on-	on-	.	.	.	.	.	.
!	!	!	!	!	!	!	!	!	!LO:MO:mod=*null:null	!	!
*	*	*	*	*	*	*	*	*	*custos:g	*	*
!	!	!	!	!	!	!	!	!	!LO:LB:g=original	!	!
=5-	=5-	=5-	=5-	=5-	=5-	=5-	=5-	=5-	=5-	=5-	=5-
*	*	*	*	*	*	*	*	*	*xywh-pl-gd--ee1638-8o--0647:1133,1089,3485,771	*	*
2G\	-de	-de	2B\	-de	-de	4r	.	.	4r	.	.
.	.	.	.	.	.	4d\	Vidi	Vidi	4g/	Vidi	Vidi
2r	.	.	2r	.	.	4g\	un	un	4b\	un	un
.	.	.	.	.	.	4e\	bel	bel	4cc\	bel	bel
!	!	!	!LO:MO:mod=*null:null	!	!	!LO:MO:mod=*null:null	!	!	!	!	!
*	*	*	*custos:G	*	*	*custos:d	*	*	*	*	*
!	!	!	!LO:LB:g=original	!	!	!LO:LB:g=original	!	!	!	!	!
*	*	*	*xywh-pl-gd--ee1638-8o--0343:1124,1216,3451,700	*	*	*xywh-pl-gd--ee1638-8o--0495:1078,1152,3414,788	*	*	*	*	*
1r	.	.	4r	.	.	4d\	lu-	lu-	4dd\	lu-	lu-
.	.	.	4G/	in	in	4g\	-me in	-me in	4b\	-me in	-me in
.	.	.	4.c\	mez-	mez-	4.g\	mez-	mez-	4.ee\	mez-	mez-
.	.	.	8A/	-zo	-zo	8a\	-zo	-zo	8ee\	-zo	-zo
=6-	=6-	=6-	=6-	=6-	=6-	=6-	=6-	=6-	=6-	=6-	=6-
1r	.	.	4c\	di	di	4g\	di	di	4ee\	di	di
.	.	.	4d\	quell'	quell'	4f\	quell'	quell'	4dd\	quell'	quell'
.	.	.	2A/	on-	on-	2e\	on-	on-	2cc#X\	on-	on-
!LO:MO:mod=*null:null	!	!	!	!	!	!	!	!	!	!	!
*custos:D	*	*	*	*	*	*	*	*	*	*	*
!LO:LB:g=original	!	!	!	!	!	!	!	!	!	!	!
*xywh-pl-gd--ee1638-8o--0191:1190,1270,3372,666	*	*	*	*	*	*	*	*	*	*	*
2r	.	.	2d\	-de	-de	1f	-de	-de	1dd	-de	-de
*	*	*	*	*	*	*	*	*	*	*	*
2D/	Che	Che	4r	.	.	.	.	.	.	.	.
.	.	.	4d\	Che	Che	.	.	.	.	.	.
=7-	=7-	=7-	=7-	=7-	=7-	=7-	=7-	=7-	=7-	=7-	=7-
4E\	co(n)	con	4c\	co(n)	con	1r	.	.	1r	.	.
4Fny\	due	due	4c\	due	due	.	.	.	.	.	.
4E\	bio(n)-	bion-	4c\	bio(n)-	bion-	.	.	.	.	.	.
4F\	-de	-de	4c\	-de	-de	.	.	.	.	.	.
4G\	trec-	trec-	4B\	trec-	trec-	2r	.	.	2r	.	.
8F\	.	.	8A/	.	.	.	.	.	.	.	.
8E\	.	.	8G/	.	.	.	.	.	.	.	.
4D/	-cie	-cie	4A/	-cie	-cie	4r	.	.	4r	.	.
4G\	all'	all'	4B\	all'	all'	4d\	Che	Che	4dd\	Che	Che
=8-	=8-	=8-	=8-	=8-	=8-	=8-	=8-	=8-	=8-	=8-	=8-
4C/	hor	hor	4c\	hor	hor	4e\	co(n)	con	4ccny\	co(n)	con
4F\	mi	mi	4A/	mi	mi	4f\	due	due	4cc\	due	due
2A\	ſtrin-	ſtrin-	2c\	ſtrin-	ſtrin-	4e\	bio(n)-	bion-	4cc\	bio(n)-	bion-
.	.	.	.	.	.	4f\	-de	-de	4cc\	-de	-de
2G\	-ſe	-ſe	2d\	-ſe	-ſe	4g\	trec-	trec-	4b\	trec-	trec-
.	.	.	.	.	.	8f\	.	.	8a\	.	.
.	.	.	.	.	.	8e\	.	.	8g\	.	.
4r	.	.	4r	.	.	4d\	-cie	-cie	4a\	-cie	-cie
4G\	all'	all'	4d\	al-	all'	4g\	all'	all'	4b\	al-	all'
!	!	!	!LO:MO:mod=*null:null	!	!	!	!	!	!LO:MO:mod=*null:null	!	!
*	*	*	*custos:c	*	*	*	*	*	*custos:cc	*	*
!	!	!	!LO:LB:g=original	!	!	!	!	!	!LO:LB:g=original	!	!
=9-	=9-	=9-	=9-	=9-	=9-	=9-	=9-	=9-	=9-	=9-	=9-
*	*	*	*xywh-pl-gd--ee1638-8o--0343:1258,1783,3359,690	*	*	*	*	*	*xywh-pl-gd--ee1638-8o--0647:1215,1655,3352,740	*	*
4A\	hor	hor	4c\	-l'hor	hor	4e\	hor	hor	4cc\	-l'hor	hor
4F\	mi	mi	4c\	mi	mi	4f\	mi	mi	4a\	mi	mi
2A\	ſtrin-	ſtrin-	4.c\	ſtrin-	ſtrin-	4.e\	ſtrin-	ſtrin-	1cc	ſtrin-	ſtrin-
.	.	.	8d\	.	.	8f\	.	.	.	.	.
!	!	!	!	!	!	!LO:MO:mod=*null:null	!	!	!	!	!
*	*	*	*	*	*	*custos:g	*	*	*	*	*
!	!	!	!	!	!	!LO:LB:g=original	!	!	!	!	!
*	*	*	*	*	*	*xywh-pl-gd--ee1638-8o--0495:1161,1702,3331,747	*	*	*	*	*
1G	-ſe	-ſe	2e\	.	.	2g\	.	.	.	.	.
.	.	.	2d\	-ſe	-ſe	2g\	-ſe	-ſe	2b\	-ſe	-ſe
=10-	=10-	=10-	=10-	=10-	=10-	=10-	=10-	=10-	=10-	=10-	=10-
1r	.	.	1r	.	.	2c/	Et	Et	4r	.	.
.	.	.	.	.	.	.	.	.	4g/	Et	Et
.	.	.	.	.	.	4.c/	mi	mi	4.e/	mi	mi
.	.	.	.	.	.	8d\	di-	di-	8f/	di-	di-
4r	.	.	4r	.	.	2e\	-pin-	-pin-	2g/	-pin-	-pin-
4C/	Et	Et	4G/	Et	Et	.	.	.	.	.	.
4.C/	mi	mi	4.E/	mi	mi	2e\	-ſe	-ſe	2g/	-ſe	-ſe
8D/	di-	di-	8F/	di-	di-	.	.	.	.	.	.
!LO:MO:mod=*null:null	!	!	!	!	!	!	!	!	!	!	!
*custos:E	*	*	*	*	*	*	*	*	*	*	*
!LO:LB:g=original	!	!	!	!	!	!	!	!	!	!	!
=11-	=11-	=11-	=11-	=11-	=11-	=11-	=11-	=11-	=11-	=11-	=11-
*xywh-pl-gd--ee1638-8o--0191:1075,1769,3549,686	*	*	*	*	*	*	*	*	*	*	*
4E\	-pinſe	-pinſe	4G/	-pinſe	-pinſe	4r	.	.	4r	.	.
4C/	un	un	4c\	un	un	4e\	un	un	4g/	un	un
1F	uol-	uol-	1c	uolt'	volt'	1f	uolt'	volt'	1a	uolt'	volt'
4C/	-to in	-to in	4c\	in	in	4e\	in	in	4g/	in	in
2G\	me-	mez-	2B\	me-	mez-	2d\	me-	mez-	2g/	me-	mez-
=12-	=12-	=12-	=12-	=12-	=12-	=12-	=12-	=12-	=12-	=12-	=12-
.	.	.	.	.	.	.	.	.	.	.	.
4E\	-zo	-zo	4B\	-zo al	-zo al	4g\	-zo al	-zo al	4g/	-zo al	-zo al
2D/	al co-	al co-	2d\	co-	co-	2f#X\	co-	co-	2a\	co-	co-
1GG	-re	-re	1d	-re	-re	1g	-re	-re	1b	-re	-re
=13-	=13-	=13-	=13-	=13-	=13-	=13-	=13-	=13-	=13-	=13-	=13-
1r	.	.	1r	.	.	4r	.	.	2dd\	Che	Che
.	.	.	.	.	.	4d\	Che	Che	.	.	.
.	.	.	.	.	.	4e\	di	di	4cc\	di	di
.	.	.	.	.	.	4fny\	co-	co-	4cc\	co-	co-
2r	.	.	2r	.	.	2g\	-lo-	-lo-	2b\	-lo-	-lo-
4r	.	.	2d\	Che	Che	2f#X\	-re	-re	2a\	-re	-re
4D/	Che	Che	.	.	.	.	.	.	.	.	.
=14-	=14-	=14-	=14-	=14-	=14-	=14-	=14-	=14-	=14-	=14-	=14-
4E\	di	di	4c\	di	di	2r	.	.	2r	.	.
4F\	co-	co-	4c\	co-	co-	.	.	.	.	.	.
2G\	-lo-	-lo-	2B\	-lo-	-lo-	4r	.	.	4r	.	.
.	.	.	.	.	.	4G/	Che	Che	4g/	Che	Che
!	!	!	!LO:MO:mod=*null:null	!	!	!LO:MO:mod=*null:null	!	!	!LO:MO:mod=*null:null	!	!
*	*	*	*custos:d	*	*	*custos:A	*	*	*custos:f	*	*
!	!	!	!LO:LB:g=original	!	!	!LO:LB:g=original	!	!	!LO:LB:g=original	!	!
*	*	*	*xywh-pl-gd--ee1638-8o--0343:1135,2318,3482,680	*	*	*xywh-pl-gd--ee1638-8o--0495:1099,2242,3363,778	*	*	*xywh-pl-gd--ee1638-8o--0647:1071,2220,3465,709	*	*
2D/	-re	-re	2d\	-re	-re	4A/	di	di	4f/	di	di
.	.	.	.	.	.	4B/	co-	co-	4f/	co-	co-
4r	.	.	2r	.	.	2c/	-lo-	-lo-	2e/	-lo-	-lo-
4C/	a-	a-	.	.	.	.	.	.	.	.	.
=15-	=15-	=15-	=15-	=15-	=15-	=15-	=15-	=15-	=15-	=15-	=15-
1G	-uan-	-van-	4r	.	.	2B/	-re	-re	2d/	-re' a-	-re' a-
.	.	.	4G/	a-	a-	.	.	.	.	.	.
.	.	.	1B	-uan-	-van-	4r	.	.	1g	-uan-	-van-
.	.	.	.	.	.	4G/	a-	a-	.	.	.
1D	-za	-za	.	.	.	2.d\	-uan-	-van-	.	.	.
.	.	.	2A/	-za	-za	.	.	.	2f/	-za	-za
.	.	.	.	.	.	4c/	-za	-za	.	.	.
=16-	=16-	=16-	=16-	=16-	=16-	=16-	=16-	=16-	=16-	=16-	=16-
2E\	lat-	lat-	2G#X/	lat-	lat-	2B/	lat-	lat-	2e/	lat-	lat-
2F\	-te e	-te e	1A	-te e	-te e	2A/	-te e	-te e	2d/	-te e	-te e
1E	ro-	ro-	.	.	.	1B	ro-	ro-	1e	ro-	ro-
.	.	.	2G#X/	ro-	ro-	.	.	.	.	.	.
=17-	=17-	=17-	=17-	=17-	=17-	=17-	=17-	=17-	=17-	=17-	=17-
2AA/	-ſe	-ſe	1A	-ſe	-ſe	1c	-ſe	-ſe	1e	-ſe	-ſe
2A\	Poi	Poi	.	.	.	.	.	.	.	.	.
!LO:MO:mod=*null:null	!	!	!	!	!	!	!	!	!	!	!
*custos:F	*	*	*	*	*	*	*	*	*	*	*
!LO:LB:g=original	!	!	!	!	!	!	!	!	!	!	!
*xywh-pl-gd--ee1638-8o--0191:1231,2352,3320,655	*	*	*	*	*	*	*	*	*	*	*
2.F\	ſi	ſi	4r	.	.	4r	.	.	4r	.	.
.	.	.	4c\	Poi	Poi	4fny\	Poi	Poi	4a\	Poi	Poi
.	.	.	4c\	ſi	ſi	4f\	ſi	ſi	4a\	ſi	ſi
4A\	naſ-	naſ-	4c\	naſ-	naſ-	4c/	naſ-	naſ-	4e/	naſ-	naſ-
=18-	=18-	=18-	=18-	=18-	=18-	=18-	=18-	=18-	=18-	=18-	=18-
2G\	-co-	-co-	2B\	-co-	-co-	2d\	-co-	-co-	2g/	-co-	-co-
2F\	-ſe in	-ſe in	2c\	-ſe in	-ſe in	2d\	-ſe in	-ſe in	2a\	-ſe in	-ſe in
2.F\	mo-	mo-	2c\	mo-	mo-	2f\	mo-	mo-	2.a\	mo-	mo-
.	.	.	4A/	-do	-do	4c/	-do	-do	.	.	.
4D/	-do den-	-do den-	2d\	de(n)-	den-	2f\	de(n)-	den-	4a\	-do	-do
=19-	=19-	=19-	=19-	=19-	=19-	=19-	=19-	=19-	=19-	=19-	=19-
2F\	-tro	-tro	.	.	.	.	.	.	2a\	de(n)-	den-
.	.	.	4c\	-tro a	-tro a	4e\	-tro a	-tro a	.	.	.
2G\	a	a	4.B\	l' al-	l'al-	2.d\	l'al-	l'al-	2g/	-tro a	-tro a
.	.	.	8A/	.	.	.	.	.	.	.	.
1E	l'al-	l'al-	1Gny	.	.	.	.	.	1g	l'al-	l'al-
.	.	.	.	.	.	8c/	.	.	.	.	.
.	.	.	.	.	.	8B/	.	.	.	.	.
.	.	.	.	.	.	2c#X/	.	.	.	.	.
!	!	!	!	!	!	!LO:MO:mod=*null:null	!	!	!	!	!
*	*	*	*	*	*	*custos:d	*	*	*	*	*
!	!	!	!	!	!	!LO:LB:g=original	!	!	!	!	!
=20-	=20-	=20-	=20-	=20-	=20-	=20-	=20-	=20-	=20-	=20-	=20-
*	*	*	*	*	*	*xywh-pl-gd--ee1638-8o--0495:1151,2792,3373,736	*	*	*	*	*
1D	-ma	-ma	1A	-ma	-ma	1d	-ma	-ma	1f#X	-ma	-ma
1r	.	.	1r	.	.	4r	.	.	2g/	Che	Che
.	.	.	.	.	.	4g\	Che	Che	.	.	.
.	.	.	.	.	.	4.f\	d'al-	d'al-	2a\	d'al-	d'al-
.	.	.	.	.	.	8e\	-tra	-tra	.	.	.
!	!	!	!LO:MO:mod=*null:null	!	!	!	!	!	!LO:MO:mod=*null:null	!	!
*	*	*	*custos:G	*	*	*	*	*	*custos:b	*	*
!	!	!	!LO:LB:g=original	!	!	!	!	!	!LO:LB:g=original	!	!
=21-	=21-	=21-	=21-	=21-	=21-	=21-	=21-	=21-	=21-	=21-	=21-
*	*	*	*xywh-pl-gd--ee1638-8o--0343:1248,2885,3359,669	*	*	*	*	*	*xywh-pl-gd--ee1638-8o--0647:1174,2807,3341,668	*	*
4r	.	.	2G/	Che	Che	4d\	ſal-	ſal-	2b\	-tra	-tra
4G\	Che	Che	.	.	.	4d\	-ma	-ma	.	.	.
4.F\	d'al-	d'al-	2A/	d'al-	d'al-	2r	.	.	2cc\	ſal-	ſal-
8E\	-tra	-tra	.	.	.	.	.	.	.	.	.
4D/	ſal-	ſal-	2B\	-tra	-tra	4r	.	.	2dd\	-ma	-ma
4D/	-ma	-ma	.	.	.	4d\	no(n)	non	.	.	.
4.C/	non	non	1c\	ſal-	ſal-	4g\	m'ag-	m'a-	4.ee\	non	non
.	.	.	.	.	.	2e\	-gra-	-gra-	.	.	.
8BB/	m'ag-	m'a-	.	.	.	.	.	.	8dd\	m'ag-	m'a-
=22-	=22-	=22-	=22-	=22-	=22-	=22-	=22-	=22-	=22-	=22-	=22-
4AA/	-gra-	-gra-	.	.	.	.	.	.	4cc\	-gra-	-gra-
4A\	-ua il	-va il	.	.	.	4f#X\	-ua il	-va il	4cc\	-ua il	-va il
2G\	pe-	pe-	2d\	-ma	-ma	2g\	pe-	pe-	2b\	pe-	pe-
1C	-ſo	-ſo	4.e\	no	no	2g\	-ſo	-ſo	2cc\	-ſo	-ſo
.	.	.	8d\	m'ag-	m'a-	.	.	.	.	.	.
.	.	.	4c\	-gra-	-gra-	2e\	il	il	2g/	il	il
.	.	.	4c\	-ua	-va	.	.	.	.	.	.
!LO:MO:mod=*null:null	!	!	!	!	!	!	!	!	!	!	!
*custos:A	*	*	*	*	*	*	*	*	*	*	*
!LO:LB:g=original	!	!	!	!	!	!	!	!	!	!	!
=23-	=23-	=23-	=23-	=23-	=23-	=23-	=23-	=23-	=23-	=23-	=23-
*xywh-pl-gd--ee1638-8o--0191:1096,2894,3455,655	*	*	*	*	*	*	*	*	*	*	*
2r	.	.	2B\	il pe-	il pe-	2d\	pe-	pe-	2g/	pe-	pe-
4r	.	.	2c\	-ſo	-ſo	4cny/	-ſo	-ſo	2e/	-ſo	-ſo
4A\	Poi	Poi	.	.	.	4e\	Poi	Poi	.	.	.
2.F\	ſi	ſi	4r	.	.	2.fny\	ſi	ſi	4r	.	.
.	.	.	4c\	Po	Poi	.	.	.	4a\	Poi	Poi
.	.	.	4c\	ſi	ſi	.	.	.	4a\	ſi	ſi
4A\	naſ-	naſ-	4c\	naſ-	naſ-	4c/	naſ-	naſ-	4e/	naſ-	naſ-
=24-	=24-	=24-	=24-	=24-	=24-	=24-	=24-	=24-	=24-	=24-	=24-
2G\	-co-	-co-	2B\	-co-	-co-	2d\	-co-	-co-	2g/	-co-	-co-
2F\	-ſe in	-ſe in	2c\	-ſe in	-ſe in	2f\	-ſe in	-ſe in	2a\	-ſe in	-ſe in
!	!	!	!	!	!	!LO:MO:mod=*null:null	!	!	!	!	!
*	*	*	*	*	*	*custos:f	*	*	*	*	*
!	!	!	!	!	!	!LO:LB:g=original	!	!	!	!	!
*	*	*	*	*	*	*xywh-pl-gd--ee1638-8o--0495:1078,3238,3404,851	*	*	*	*	*
2.F\	mo-	mo-	2c\	mo-	mo-	2f\	mo-	mo-	2.a\	mo-	mo-
.	.	.	4A/	-do	-do	4c/	-do	-do	.	.	.
4D/	-do	-do	2d\	de(n)-	den-	2f\	de(n)-	den-	4a\	-do	-do
=25-	=25-	=25-	=25-	=25-	=25-	=25-	=25-	=25-	=25-	=25-	=25-
2F\	den-	den-	.	.	.	.	.	.	2a\	den-	den-
.	.	.	4c\	-tro a	-tro a	4e\	-tro a	-tro a	.	.	.
2G\	-tro a	-tro a	4.B\	l'al-	l'al-	2.d\	l'al-	l'al-	2g/	-tro a-	-tro a
.	.	.	8A/	.	.	.	.	.	.	.	.
!	!	!	!	!	!	!	!	!	!LO:MO:mod=*null:null	!	!
*	*	*	*	*	*	*	*	*	*custos:g	*	*
!	!	!	!	!	!	!	!	!	!LO:LB:g=original	!	!
*	*	*	*	*	*	*	*	*	*xywh-pl-gd--ee1638-8o--0647:1071,3321,3485,719	*	*
1E	l'al-	l'al-	1G	.	.	.	.	.	1g	-l'al-	l'al-
.	.	.	.	.	.	8c/	.	.	.	.	.
.	.	.	.	.	.	8B/	.	.	.	.	.
.	.	.	.	.	.	2c#X/	.	.	.	.	.
!	!	!	!LO:MO:mod=*null:null	!	!	!	!	!	!	!	!
*	*	*	*custos:A	*	*	*	*	*	*	*	*
!	!	!	!LO:LB:g=original	!	!	!	!	!	!	!	!
=26-	=26-	=26-	=26-	=26-	=26-	=26-	=26-	=26-	=26-	=26-	=26-
*	*	*	*xywh-pl-gd--ee1638-8o--0343:1217,3462,3400,618	*	*	*	*	*	*	*	*
1D	-ma	-ma	1A	-ma	-ma	1d	-ma	-ma	1f#X	-ma	-ma
1r	.	.	1r	.	.	4r	.	.	2g/	Che	Che
.	.	.	.	.	.	4g\	Che	Che	.	.	.
.	.	.	.	.	.	4.f\	d'al-	d'al-	2a\	d'al-	d'al-
.	.	.	.	.	.	8e\	-tra	-tra	.	.	.
=27-	=27-	=27-	=27-	=27-	=27-	=27-	=27-	=27-	=27-	=27-	=27-
4r	.	.	2G/	Che	Che	4d\	ſal-	ſal-	2b\	-tra	-tra
4G\	Che	Che	.	.	.	4d\	-ma	-ma	.	.	.
4.F\	d'al-	d'al-	2A/	d'al-	d'al-	2r	.	.	2cc\	ſal-	ſal-
8E\	-tra	-tra	.	.	.	.	.	.	.	.	.
4D/	ſal-	ſal-	2B\	-tra	-tra	4r	.	.	2dd\	-ma	-ma
4D/	-ma	-ma	.	.	.	4d\	non	non	.	.	.
4.C/	non	non	1c\	ſal-	ſal-	4g\	m'ag-	m'a-	4.ee\	no(n)	non
.	.	.	.	.	.	2e\	-gra-	-gra-	.	.	.
8BB/	m'ag-	m'a-	.	.	.	.	.	.	8dd\	m'ag-	m'a-
!LO:MO:mod=*null:null	!	!	!	!	!	!	!	!	!	!	!
*custos:AA	*	*	*	*	*	*	*	*	*	*	*
!LO:LB:g=original	!	!	!	!	!	!	!	!	!	!	!
=28-	=28-	=28-	=28-	=28-	=28-	=28-	=28-	=28-	=28-	=28-	=28-
*xywh-pl-gd--ee1638-8o--0191:1221,3435,3330,676	*	*	*	*	*	*	*	*	*	*	*
4AA/	-gra-	-gra-	.	.	.	.	.	.	4cc\	-gra-	-gra-
4A\	-ua il	-va il	.	.	.	4e\	-ua il	-va il	4cc\	-ua il	-va il
2G\	pe-	pe-	2d\	-ma	-ma	2g\	pe-	pe-	2b\	pe-	pe-
1C	-ſo	-ſo	4.e\	non	non	1g	-ſo	-ſo	1cc	-ſo	-ſo
.	.	.	8d\	m'ag-	m'a-	.	.	.	.	.	.
.	.	.	4c\	-gra-	-gra-	.	.	.	.	.	.
.	.	.	4c\	-ua il	-va il	.	.	.	.	.	.
!	!	!	!	!	!	!LO:MO:mod=*null:null	!	!	!	!	!
*	*	*	*	*	*	*custos:G	*	*	*	*	*
!	!	!	!	!	!	!LO:LB:g=original	!	!	!	!	!
=29-	=29-	=29-	=29-	=29-	=29-	=29-	=29-	=29-	=29-	=29-	=29-
*	*	*	*	*	*	*xywh-pl-gd--ee1638-8o--0495:995,3788,3425,788	*	*	*	*	*
4r	.	.	2B\	pe-	pe-	2G/	Che	Che	1r	.	.
4G\	Che	Che	.	.	.	.	.	.	.	.	.
4.F\	d'al-	d'al-	2c\	-ſo	-ſo	2A/	d'al-	d'al-	.	.	.
8E\	-tra	-tra	.	.	.	.	.	.	.	.	.
4D/	ſal-	ſal-	1r	.	.	2B/	-tra	-tra	2r	.	.
4D/	-ma	-ma	.	.	.	.	.	.	.	.	.
4.C/	no(n)	non	.	.	.	1cny\	ſal-	ſal-	2g/	Che	Che
8BB/	m'ag-	m'a-	.	.	.	.	.	.	.	.	.
=30-	=30-	=30-	=30-	=30-	=30-	=30-	=30-	=30-	=30-	=30-	=30-
4AA/	-gra-	-gra-	2r	.	.	.	.	.	2a\	d'al-	d'al-
4AA/	-ua'l	-va'l	.	.	.	.	.	.	.	.	.
2GG/	pe-	pe-	2G/	Che	Che	2d\	-ma	-ma	2b\	-tra	-tra
4FF/	-ſo	-ſo	2A/	d'al-	d'al-	4f\	no(n)	non	2cc\	ſal-	ſal-
4F\	Che	Che	.	.	.	4c/	m'ag-	m'a-	.	.	.
4.E\	d'al-	d'al-	2B\	-tra	-tra	4e\	-gra-	-gra-	2g/	-ma	-ma
.	.	.	.	.	.	4e\	-ua il	-va il	.	.	.
8D\	-tra	-tra	.	.	.	.	.	.	.	.	.
=31-	=31-	=31-	=31-	=31-	=31-	=31-	=31-	=31-	=31-	=31-	=31-
2C/	ſal-	ſal-	2c\	ſal-	ſal-	2e\	pe-	pe-	2r	.	.
2GG/	-ma	-ma	2d\	-ma	-ma	4B/	-ſo	-ſo	2g/	Che	Che
.	.	.	.	.	.	4g\	Che	Che	.	.	.
!	!	!	!LO:MO:mod=*null:null	!	!	!	!	!	!	!	!
*	*	*	*custos:G	*	*	*	*	*	*	*	*
!	!	!	!LO:LB:g=original	!	!	!	!	!	!	!	!
*	*	*	*xywh-pl-gd--ee1638-8o--0343:1093,3926,3482,700	*	*	*	*	*	*	*	*
2r	.	.	2r	.	.	4.f\	d'al-	d'al-	2a\	d'al-	d'al-
.	.	.	.	.	.	8e\	-tra	-tra	.	.	.
4r	.	.	2G/	Che	Che	4d\	ſal-	ſal-	2b\	-tra	-tra
4G\	Che	Che	.	.	.	4d\	-ma	-ma	.	.	.
!LO:MO:mod=*null:null	!	!	!	!	!	!	!	!	!LO:MO:mod=*null:null	!	!
*custos:F	*	*	*	*	*	*	*	*	*custos:cc	*	*
!LO:LB:g=original	!	!	!	!	!	!	!	!	!LO:LB:g=original	!	!
=32-	=32-	=32-	=32-	=32-	=32-	=32-	=32-	=32-	=32-	=32-	=32-
*xywh-pl-gd--ee1638-8o--0191:1096,4018,3507,645	*	*	*	*	*	*	*	*	*xywh-pl-gd--ee1638-8o--0647:1143,3907,3413,637	*	*
4.F\	d'al-	d'al-	2A/	d'al-	d'al-	2r	.	.	2cc\	ſal-	ſal-
8E\	-tra	-tra	.	.	.	.	.	.	.	.	.
4D/	ſal-	ſal-	2B\	-tra	-tra	4r	.	.	2dd\	-ma	-ma
4D/	-ma	-ma	.	.	.	4d\	non	non	.	.	.
4.C/	non	non	1c	ſal-	ſal-	4g\	m'ag-	m'a-	4.ee\	non	non
.	.	.	.	.	.	2e\	-gra-	-gra-	.	.	.
8BB/	m'ag-	m'a-	.	.	.	.	.	.	8dd\	m'ag-	m'a-
4AA/	-gra-	-gra-	.	.	.	.	.	.	4cc\	-gra-	-gra-
4A\	-ua il	-va il	.	.	.	4f#X\	-ua il	-va il	4cc\	-ua il	-va il
!	!	!	!	!	!	!	!	!	!	!	!
!	!	!	!	!	!	!LO:MO:mod=*null:null	!	!	!	!	!
*	*	*	*	*	*	*custos:g	*	*	*	*	*
!	!	!	!	!	!	!LO:LB:g=original	!	!	!	!	!
=33-	=33-	=33-	=33-	=33-	=33-	=33-	=33-	=33-	=33-	=33-	=33-
*	*	*	*	*	*	*xywh-pl-gd--ee1638-8o--0495:1120,4452,3352,633	*	*	*	*	*
4G\	pe-	pe-	2d\	-ma	-ma	4g\	pe-	pe-	2b\	pe-	pe-
4G\	-ſo	-ſo	.	.	.	4g\	-ſo	-ſo	.	.	.
4.c\	non	non	4.e\	non	non	4.g\	non	non	2.cc\	-ſo	-ſo
8B\	m'ag-	m'a-	8d\	m'ag-	m'a-	8g\	m'ag-	m'a-	.	.	.
4A\	-gra-	-gra-	4c\	-gra-	-gra-	4fny\	-gra-	-gra-	.	.	.
4c\	-ua il	-va il	4c\	-ua il	-va il	4e\	-ua il	-va il	4g/	il	il
2G\	pe-	pe-	2B\	pe-	pe-	2d\	pe-	pe-	2g/	pe-	pe-
=34-	=34-	=34-	=34-	=34-	=34-	=34-	=34-	=34-	=34-	=34-	=34-
0Cl/	-ſo.	-ſo.	0cl\	-ſo.	-ſo.	0el\	-ſo.	-ſo.	0gl\	-ſo.	-ſo.
=||	=||	=||	=||	=||	=||	=||	=||	=||	=||	=||	=||
*-	*-	*-	*-	*-	*-	*-	*-	*-	*-	*-	*-
!!!RDF**kern: l = terminal long
!!!system-decoration: [(s1,s2,s3,s4)]
!!!filter-modern: shed -e "s/:t=P:/:T=P:/L"
!!!filter-modern: shed -e "s/-//B"
!!!filter-modern: shed -e "s/^(\d+[\/\\]right)/$1yy/I; s/^(\d+[\/\\]left)/$1yy/I"
!!!filter-modern: shed -e "s/yy//"
!!!filter-modern: shed -k -e "s/\(y(?!y)/(/"
!!!filter-modern: shed -k -e "s/([\(\)\[\]])[><]/$1/g"
!!!filter-modern: shed -k -e “s/([()[]_])[><]/$1/g”
!!!filter-modern: tie -s
!!!filter-modern: shed -e "s/^(X?)rep$/$1REP/I"
!!!filter-modern: shed -k -e "s/^(X?)tuplet/$1TUPLET/I"
!!!filter-modern: shed -e "s/LO:DY:(a|b|rj)/LO:dy:$1/L"
!!!filter-modern: shed -e "s/LO:HP:(a|b)/LO:hp:$1/L"
!!!filter-modern: shed -k -e "s/r[a-gA-G]+/r/D"
!!!filter-modern: shed -k -e "s/([^a-gA-Gn#-])[<>]/$1/g"
!!!filter-modern: sic -sq
!!!filter-modern: autostem -r
!!!filter-modern: modori -m
!!!filter-modern: humtr -p
!!!ENC: Berenika Jozajtis
!!!END: 2022-07-08
!!!EED: Urszula Świątek
!!!EEV: 2022-07-28
!!!ENC-iiif: Zuzanna Daniec
!!!END-iiif: 2022-09-11
!!!ENC-modern: Krzysztof Stępień
!!!END-modern: 2022-11-08
